X:1
T:Title
%%score { ( 1 4 ) | ( 2 3 ) }
L:1/8
M:3/4
K:G
V:1 treble nm="Grand Piano"
V:4 treble 
V:2 treble 
V:3 treble 
V:1
 z2 z2[Q:1/4=110] D2 | D2 G2 G2 | B2 A2 B>c | d2 G2 e2 | d4 d2 | [Fc]2 [FA]2 [Fc]2 | B2 G2 B2 | %7
 A2 d2 ^c2 | [Fd]4 D2 | D2 G2 G2 | B2 A2 B>c | d2 G2 e2 | d4 d2 | [CEc]2 [D=FB]2 [CEA]2 | %14
 [B,DG]2 [B,GB]2 [Gd]2 | [Fc]2 [CFA]2 [CDB]2 |[M:2/4] [B,DG]4 |[M:1/4] [DF]>G | %18
[M:3/4] z2 z2 [FA]2 | A4 G>A | B2 G2 e2 | d4 d2 | [CEc]2 [D=FB]2 [CEA]2 | [B,DG]2 [B,GB]2 [Gd]2 | %24
 [Fc]2 [CFA]2 [CDB]2 |[M:2/4] [B,DG]4 |] %26
V:2
 z2 z2 [G,B,]2 | [G,B,]2 [G,B,D]2 [G,C]2 | z2 z2 [G,G]2 | [G,B,G]2 [G,B,]2 [G,CG]2 | %4
 [G,B,G]4 [G,B,G]2 | [D,A,]2 [D,D]2 [D,D]2 | [G,DG]2 [G,B,]2 [G,DG]2 | [A,DF]2 [A,DF]2 [A,EG]2 | %8
 [D,D]4 [D,C]2 | [G,B,]2 [G,B,D]2 [G,C]2 | z2 z2 [G,G]2 | [G,B,G]2 [G,B,]2 [G,CG]2 | %12
 [G,B,G]4 [G,B,=F]2 | C,2 C,2 C,2 | D,2 D,2 [D,B,]2 | [D,A,]2 D,2 D,2 |[M:2/4] G,,4 | %17
[M:1/4] z z/ E/ |[M:3/4] [D,D]4 [D,D]D, | [CDF]4 [B,D]>[A,DF] | [G,DG]2 [G,B,]2 [G,CG]2 | %21
 [G,B,G]4 [G,B,=F]2 | C,2 C,2 C,2 | D,2 D,2 [D,B,]2 | [D,A,]2 D,2 C,2 |[M:2/4] G,,4 |] %26
V:3
 x6 | x6 | [G,DG]2 [G,B,G]2 z z/ A,/ | x6 | x6 | x6 | x6 | x6 | x6 | x6 | %10
 [G,DG]2 [G,B,G]2 z z/ A,/ | x6 | x6 | x6 | x6 | x6 |[M:2/4] x4 |[M:1/4] D,2 |[M:3/4] x6 | x6 | %20
 x6 | x6 | x6 | x6 | x6 |[M:2/4] x4 |] %26
V:4
 x6 | x6 | x6 | x6 | x6 | x6 | x6 | x6 | x6 | x6 | x6 | x6 | x6 | x6 | x6 | x6 |[M:2/4] x4 | %17
[M:1/4] x2 |[M:3/4] [FA]2 [FA]2 z D | x6 | x6 | x6 | x6 | x6 | x6 |[M:2/4] x4 |] %26

